assets/images/logo_light_mode.svg

<svg fill="none" height="448" viewBox="0 0 2081 448" width="2081" xmlns="http://www.w3.org/2000/svg"><path clip-rule="evenodd" d="m189.695 14.3458-123.671 50.8459-35.0976 84.1073 94.5736 111.043 97.934-194.3612zm-189.695 209.0652 28.7802-68.969 94.2938 110.714-58.3222 115.749zm68.9799 160.144 57.5901-114.294 42.541 49.949-54.516 83.38zm50.2791 20.981 53.21-81.383 91.965 107.979-41.023 16.866zm56.045-85.718 93.964 110.327 67.678-27.825 45.979-91.252-100.919-154.448zm210.763-3.943-42.104 83.56 38.011-15.628 18.895-45.278zm2.584-5.128 51.961-103.124 7.386 17.965-44.816 107.397zm49.461-109.205-52.603 104.397-100.534-153.859 64.661-98.8978 33.171 13.8418zm-309.116 63.904 42.949 50.428 107.094-163.795-52.463-80.2906zm153.011-117.907-52.847-80.8793 26.542-52.6759 89.27 37.2521zm-55.989-85.6869-31.645-48.4298 30.215-12.4223 26.517 11.0654z" fill="#3eb0ef" fill-rule="evenodd"/><path d="m582.6 110.5h87.6c22.4 0 39.8 5.5 52.2 16.5s18.6 26.6 18.6 46.8c0 20-6.2 35.6-18.6 46.8s-29.8 16.8-52.2 16.8h-56.7v84.6h-30.9zm84.3 102c29.6 0 44.4-12.9 44.4-38.7 0-25.6-14.8-38.4-44.4-38.4h-53.4v77.1zm166.423 111.6c-14.4 0-27.1-3.1-38.1-9.3-10.8-6.2-19.2-15-25.2-26.4-5.8-11.6-8.7-25-8.7-40.2 0-15.4 2.9-28.8 8.7-40.2 6-11.6 14.4-20.5 25.2-26.7 11-6.2 23.7-9.3 38.1-9.3s27 3.1 37.8 9.3c11 6.2 19.4 15.1 25.2 26.7 6 11.4 9 24.8 9 40.2 0 15.2-3 28.6-9 40.2-5.8 11.4-14.2 20.2-25.2 26.4-10.8 6.2-23.4 9.3-37.8 9.3zm0-24c13.4 0 23.6-4.4 30.6-13.2 7.2-8.8 10.8-21.7 10.8-38.7 0-16.8-3.6-29.6-10.8-38.4-7.2-9-17.4-13.5-30.6-13.5s-23.4 4.5-30.6 13.5c-7.2 8.8-10.8 21.6-10.8 38.4 0 17 3.5 29.9 10.5 38.7 7.2 8.8 17.5 13.2 30.9 13.2zm105.736-189.6h30.3v211.5h-30.3zm198.051 143.4h-103.5c2.2 31 17.6 46.5 46.2 46.5 16.8 0 32-5.5 45.6-16.5l9.3 21.3c-6.8 5.8-15.2 10.4-25.2 13.8s-20.2 5.1-30.6 5.1c-23.4 0-41.9-6.7-55.5-20.1-13.4-13.4-20.1-31.9-20.1-55.5 0-15 2.9-28.3 8.7-39.9 6-11.6 14.3-20.6 24.9-27 10.8-6.4 23-9.6 36.6-9.6 19.8 0 35.3 6.4 46.5 19.2 11.4 12.8 17.1 30.5 17.1 53.1zm-63-59.7c-11.6 0-20.9 3.7-27.9 11.1-6.8 7.2-10.9 17.6-12.3 31.2h77.1c-.6-13.6-4.1-24-10.5-31.2-6.2-7.4-15-11.1-26.4-11.1zm164.23 106.5c4.6 0 9.1-.3 13.5-.9l-1.5 23.1c-5 .8-10.2 1.2-15.6 1.2-19 0-33.2-4.6-42.6-13.8-9.2-9.4-13.8-22.9-13.8-40.5v-70.8h-28.5v-23.4h28.5v-44.1h30.3v44.1h40.2v23.4h-40.2v69.6c0 21.4 9.9 32.1 29.7 32.1zm105.17 0c4.6 0 9.1-.3 13.5-.9l-1.5 23.1c-5 .8-10.2 1.2-15.6 1.2-19 0-33.2-4.6-42.6-13.8-9.2-9.4-13.8-22.9-13.8-40.5v-70.8h-28.5v-23.4h28.5v-44.1h30.3v44.1h40.2v23.4h-40.2v69.6c0 21.4 9.9 32.1 29.7 32.1zm100.07 23.4c-14.4 0-27.1-3.1-38.1-9.3-10.8-6.2-19.2-15-25.2-26.4-5.8-11.6-8.7-25-8.7-40.2 0-15.4 2.9-28.8 8.7-40.2 6-11.6 14.4-20.5 25.2-26.7 11-6.2 23.7-9.3 38.1-9.3s27 3.1 37.8 9.3c11 6.2 19.4 15.1 25.2 26.7 6 11.4 9 24.8 9 40.2 0 15.2-3 28.6-9 40.2-5.8 11.4-14.2 20.2-25.2 26.4-10.8 6.2-23.4 9.3-37.8 9.3zm0-24c13.4 0 23.6-4.4 30.6-13.2 7.2-8.8 10.8-21.7 10.8-38.7 0-16.8-3.6-29.6-10.8-38.4-7.2-9-17.4-13.5-30.6-13.5s-23.4 4.5-30.6 13.5c-7.2 8.8-10.8 21.6-10.8 38.4 0 17 3.5 29.9 10.5 38.7 7.2 8.8 17.5 13.2 30.9 13.2zm133.74-13.8v35.7h-35.7v-35.7zm169.69-175.8v211.5h-30v-25.2c-4.4 8.8-10.8 15.6-19.2 20.4-8.4 4.6-18.1 6.9-29.1 6.9-12.6 0-23.9-3.2-33.9-9.6-9.8-6.4-17.5-15.4-23.1-27-5.4-11.6-8.1-24.9-8.1-39.9 0-15.2 2.7-28.5 8.1-39.9 5.6-11.4 13.3-20.2 23.1-26.4s21.1-9.3 33.9-9.3c11 0 20.6 2.4 28.8 7.2 8.4 4.6 14.8 11.2 19.2 19.8v-88.5zm-71.1 189.6c13.2 0 23.3-4.5 30.3-13.5 7.2-9 10.8-21.8 10.8-38.4s-3.6-29.4-10.8-38.4c-7-9-17.1-13.5-30.3-13.5s-23.5 4.5-30.9 13.5c-7.2 8.8-10.8 21.4-10.8 37.8s3.7 29.3 11.1 38.7c7.4 9.2 17.6 13.8 30.6 13.8zm238.74-46.2h-103.5c2.2 31 17.6 46.5 46.2 46.5 16.8 0 32-5.5 45.6-16.5l9.3 21.3c-6.8 5.8-15.2 10.4-25.2 13.8s-20.2 5.1-30.6 5.1c-23.4 0-41.9-6.7-55.5-20.1-13.4-13.4-20.1-31.9-20.1-55.5 0-15 2.9-28.3 8.7-39.9 6-11.6 14.3-20.6 24.9-27 10.8-6.4 23-9.6 36.6-9.6 19.8 0 35.3 6.4 46.5 19.2 11.4 12.8 17.1 30.5 17.1 53.1zm-63-59.7c-11.6 0-20.9 3.7-27.9 11.1-6.8 7.2-10.9 17.6-12.3 31.2h77.1c-.6-13.6-4.1-24-10.5-31.2-6.2-7.4-15-11.1-26.4-11.1zm228.44-18.3-63.6 146.1h-27.3l-63-146.1h31.8l45.6 111.9 46.2-111.9z" fill="#2d3748"/></svg>

<svg width="2081" height="448" viewBox="0 0 2081 448" fill="none" xmlns="http://www.w3.org/2000/svg">
<path fill-rule="evenodd" clip-rule="evenodd" d="M189.695 14.3458L66.024 65.1917L30.9264 149.299L125.5 260.342L223.434 65.9808L189.695 14.3458ZM0 223.411L28.7802 154.442L123.074 265.156L64.7518 380.905L0 223.411ZM68.9799 383.555L126.57 269.261L169.111 319.21L114.595 402.59L68.9799 383.555ZM119.259 404.536L172.469 323.153L264.434 431.132L223.411 447.998L119.259 404.536ZM175.304 318.818L269.268 429.145L336.946 401.32L382.925 310.068L282.006 155.62L175.304 318.818ZM386.067 314.875L343.963 398.435L381.974 382.807L400.869 337.529L386.067 314.875ZM388.651 309.747L440.612 206.623L447.998 224.588L403.182 331.985L388.651 309.747ZM438.112 200.542L385.509 304.939L284.975 151.08L349.636 52.1822L382.807 66.024L438.112 200.542ZM128.996 264.446L171.945 314.874L279.039 151.079L226.576 70.7884L128.996 264.446ZM282.007 146.539L229.16 65.6597L255.702 12.9838L344.972 50.2359L282.007 146.539ZM226.018 60.8521L194.373 12.4223L224.588 0L251.105 11.0654L226.018 60.8521Z" fill="rgb(62, 176, 239)"/>
<path d="M582.6 110.5H670.2C692.6 110.5 710 116 722.4 127C734.8 138 741 153.6 741 173.8C741 193.8 734.8 209.4 722.4 220.6C710 231.8 692.6 237.4 670.2 237.4H613.5V322H582.6V110.5ZM666.9 212.5C696.5 212.5 711.3 199.6 711.3 173.8C711.3 148.2 696.5 135.4 666.9 135.4H613.5V212.5H666.9ZM833.323 324.1C818.923 324.1 806.223 321 795.223 314.8C784.423 308.6 776.023 299.8 770.023 288.4C764.223 276.8 761.323 263.4 761.323 248.2C761.323 232.8 764.223 219.4 770.023 208C776.023 196.4 784.423 187.5 795.223 181.3C806.223 175.1 818.923 172 833.323 172C847.723 172 860.323 175.1 871.123 181.3C882.123 187.5 890.523 196.4 896.323 208C902.323 219.4 905.323 232.8 905.323 248.2C905.323 263.4 902.323 276.8 896.323 288.4C890.523 299.8 882.123 308.6 871.123 314.8C860.323 321 847.723 324.1 833.323 324.1ZM833.323 300.1C846.723 300.1 856.923 295.7 863.923 286.9C871.123 278.1 874.723 265.2 874.723 248.2C874.723 231.4 871.123 218.6 863.923 209.8C856.723 200.8 846.523 196.3 833.323 196.3C820.123 196.3 809.923 200.8 802.723 209.8C795.523 218.6 791.923 231.4 791.923 248.2C791.923 265.2 795.423 278.1 802.423 286.9C809.623 295.7 819.923 300.1 833.323 300.1ZM939.059 110.5H969.359V322H939.059V110.5ZM1137.11 253.9H1033.61C1035.81 284.9 1051.21 300.4 1079.81 300.4C1096.61 300.4 1111.81 294.9 1125.41 283.9L1134.71 305.2C1127.91 311 1119.51 315.6 1109.51 319C1099.51 322.4 1089.31 324.1 1078.91 324.1C1055.51 324.1 1037.01 317.4 1023.41 304C1010.01 290.6 1003.31 272.1 1003.31 248.5C1003.31 233.5 1006.21 220.2 1012.01 208.6C1018.01 197 1026.31 188 1036.91 181.6C1047.71 175.2 1059.91 172 1073.51 172C1093.31 172 1108.81 178.4 1120.01 191.2C1131.41 204 1137.11 221.7 1137.11 244.3V253.9ZM1074.11 194.2C1062.51 194.2 1053.21 197.9 1046.21 205.3C1039.41 212.5 1035.31 222.9 1033.91 236.5H1111.01C1110.41 222.9 1106.91 212.5 1100.51 205.3C1094.31 197.9 1085.51 194.2 1074.11 194.2ZM1238.34 300.7C1242.94 300.7 1247.44 300.4 1251.84 299.8L1250.34 322.9C1245.34 323.7 1240.14 324.1 1234.74 324.1C1215.74 324.1 1201.54 319.5 1192.14 310.3C1182.94 300.9 1178.34 287.4 1178.34 269.8V199H1149.84V175.6H1178.34V131.5H1208.64V175.6H1248.84V199H1208.64V268.6C1208.64 290 1218.54 300.7 1238.34 300.7ZM1343.51 300.7C1348.11 300.7 1352.61 300.4 1357.01 299.8L1355.51 322.9C1350.51 323.7 1345.31 324.1 1339.91 324.1C1320.91 324.1 1306.71 319.5 1297.31 310.3C1288.11 300.9 1283.51 287.4 1283.51 269.8V199H1255.01V175.6H1283.51V131.5H1313.81V175.6H1354.01V199H1313.81V268.6C1313.81 290 1323.71 300.7 1343.51 300.7ZM1443.58 324.1C1429.18 324.1 1416.48 321 1405.48 314.8C1394.68 308.6 1386.28 299.8 1380.28 288.4C1374.48 276.8 1371.58 263.4 1371.58 248.2C1371.58 232.8 1374.48 219.4 1380.28 208C1386.28 196.4 1394.68 187.5 1405.48 181.3C1416.48 175.1 1429.18 172 1443.58 172C1457.98 172 1470.58 175.1 1481.38 181.3C1492.38 187.5 1500.78 196.4 1506.58 208C1512.58 219.4 1515.58 232.8 1515.58 248.2C1515.58 263.4 1512.58 276.8 1506.58 288.4C1500.78 299.8 1492.38 308.6 1481.38 314.8C1470.58 321 1457.98 324.1 1443.58 324.1ZM1443.58 300.1C1456.98 300.1 1467.18 295.7 1474.18 286.9C1481.38 278.1 1484.98 265.2 1484.98 248.2C1484.98 231.4 1481.38 218.6 1474.18 209.8C1466.98 200.8 1456.78 196.3 1443.58 196.3C1430.38 196.3 1420.18 200.8 1412.98 209.8C1405.78 218.6 1402.18 231.4 1402.18 248.2C1402.18 265.2 1405.68 278.1 1412.68 286.9C1419.88 295.7 1430.18 300.1 1443.58 300.1ZM1577.32 286.3V322H1541.62V286.3H1577.32ZM1747.01 110.5V322H1717.01V296.8C1712.61 305.6 1706.21 312.4 1697.81 317.2C1689.41 321.8 1679.71 324.1 1668.71 324.1C1656.11 324.1 1644.81 320.9 1634.81 314.5C1625.01 308.1 1617.31 299.1 1611.71 287.5C1606.31 275.9 1603.61 262.6 1603.61 247.6C1603.61 232.4 1606.31 219.1 1611.71 207.7C1617.31 196.3 1625.01 187.5 1634.81 181.3C1644.61 175.1 1655.91 172 1668.71 172C1679.71 172 1689.31 174.4 1697.51 179.2C1705.91 183.8 1712.31 190.4 1716.71 199V110.5H1747.01ZM1675.91 300.1C1689.11 300.1 1699.21 295.6 1706.21 286.6C1713.41 277.6 1717.01 264.8 1717.01 248.2C1717.01 231.6 1713.41 218.8 1706.21 209.8C1699.21 200.8 1689.11 196.3 1675.91 196.3C1662.71 196.3 1652.41 200.8 1645.01 209.8C1637.81 218.6 1634.21 231.2 1634.21 247.6C1634.21 264 1637.91 276.9 1645.31 286.3C1652.71 295.5 1662.91 300.1 1675.91 300.1ZM1914.65 253.9H1811.15C1813.35 284.9 1828.75 300.4 1857.35 300.4C1874.15 300.4 1889.35 294.9 1902.95 283.9L1912.25 305.2C1905.45 311 1897.05 315.6 1887.05 319C1877.05 322.4 1866.85 324.1 1856.45 324.1C1833.05 324.1 1814.55 317.4 1800.95 304C1787.55 290.6 1780.85 272.1 1780.85 248.5C1780.85 233.5 1783.75 220.2 1789.55 208.6C1795.55 197 1803.85 188 1814.45 181.6C1825.25 175.2 1837.45 172 1851.05 172C1870.85 172 1886.35 178.4 1897.55 191.2C1908.95 204 1914.65 221.7 1914.65 244.3V253.9ZM1851.65 194.2C1840.05 194.2 1830.75 197.9 1823.75 205.3C1816.95 212.5 1812.85 222.9 1811.45 236.5H1888.55C1887.95 222.9 1884.45 212.5 1878.05 205.3C1871.85 197.9 1863.05 194.2 1851.65 194.2ZM2080.09 175.9L2016.49 322H1989.19L1926.19 175.9H1957.99L2003.59 287.8L2049.79 175.9H2080.09Z" fill="#2D3748"/>
</svg>
